public/images/logo.svg

<svg fill="none" height="20" viewBox="0 0 20 20" width="20" xmlns="http://www.w3.org/2000/svg"><path d="m13.3129 16.4133c.0076.0025.0153.0051.0229.0077 3.3358 1.1171 6.547 1.2328 6.547 1.2328s.7562-6.9386-1.5731-11.37269c-2.3293-4.43412-7.5604-6.2338688-7.5604-6.2338688s-10.907637 3.2350788-10.74755505 9.4011488c.16008205 6.16611 4.29584505 9.17911 4.29584505 9.17911s1.00857-.9737 2.40123-2.277c.02254-.0211.04493-.0421.06717-.0629.09988.112.20206.2207.30653.3253 2.15178 2.1549 4.71908 3.0546 4.71908 3.0546z"/></svg>

<svg width="20" height="20" viewBox="0 0 20 20" fill="none" xmlns="http://www.w3.org/2000/svg">
<path d="M13.3129 16.4133C13.3205 16.4158 13.3282 16.4184 13.3358 16.421C16.6716 17.5381 19.8828 17.6538 19.8828 17.6538C19.8828 17.6538 20.639 10.7152 18.3097 6.28111C15.9804 1.84699 10.7493 0.0472412 10.7493 0.0472412C10.7493 0.0472412 -0.158337 3.28232 0.00174495 9.44839C0.161827 15.6145 4.29759 18.6275 4.29759 18.6275C4.29759 18.6275 5.30616 17.6538 6.69882 16.3505C6.72136 16.3294 6.74375 16.3084 6.76599 16.2876C6.86587 16.3996 6.96805 16.5083 7.07252 16.6129C9.2243 18.7678 11.7916 19.6675 11.7916 19.6675L13.3129 16.4133Z"/>
</svg>
